symbols/web/mark_email_read/materialsymbolsoutlined/mark_email_read_wght100gradN25fill1_48px.svg

<svg xmlns="http://www.w3.org/2000/svg" height="48" width="48"><path d="m30.65 42.1-6.6-6.55.8-.8 5.8 5.75L42.3 28.8l.8.8ZM9.3 37.2q-1.1 0-1.9-.8-.8-.8-.8-1.9V13.3q0-1.15.8-1.925.8-.775 1.9-.775h29.35q1.15 0 1.925.775.775.775.775 1.925v11.2l-10.7 10.75-5.8-5.75-6 6.05 1.7 1.65Zm14.65-13.9 16.3-10.85-.85-.75-15.45 10.2-15.4-10.2-.85.75Z"/></svg>

<svg xmlns="http://www.w3.org/2000/svg" height="48" width="48"><path d="M30.65 42.1 24.05 35.55 24.85 34.75 30.65 40.5 42.3 28.8 43.1 29.6ZM9.3 37.2Q8.2 37.2 7.4 36.4Q6.6 35.6 6.6 34.5V13.3Q6.6 12.15 7.4 11.375Q8.2 10.6 9.3 10.6H38.65Q39.8 10.6 40.575 11.375Q41.35 12.15 41.35 13.3V24.5L30.65 35.25L24.85 29.5L18.85 35.55L20.55 37.2ZM23.95 23.3 40.25 12.45 39.4 11.7 23.95 21.9 8.55 11.7 7.7 12.45Z"/></svg>
